packages/foundations/assets/icons/functional/images/business & payment/sepa_16.svg

<svg width="16" height="16" viewBox="0 0 16 16" fill="none" xmlns="http://www.w3.org/2000/svg">
<g clip-path="url(#clip0_184_91)">
<path fill-rule="evenodd" clip-rule="evenodd" d="M12.4108 10.607L12.4388 10.674L13.5008 13.874C13.5315 13.9685 13.5259 14.0711 13.4851 14.1618C13.4443 14.2524 13.3712 14.3246 13.2801 14.3643C13.1889 14.404 13.0863 14.4083 12.9922 14.3765C12.898 14.3446 12.8191 14.2789 12.7708 14.192L12.7408 14.126L12.4608 13.28H11.5448L11.2198 14.142C11.1864 14.2296 11.1234 14.3027 11.0418 14.3485C10.9601 14.3944 10.8649 14.4101 10.7728 14.393L10.7028 14.374C10.6154 14.3407 10.5424 14.2779 10.4966 14.1964C10.4507 14.1149 10.4349 14.02 10.4518 13.928L10.4718 13.858L11.6848 10.658C11.7119 10.5865 11.7589 10.5243 11.8203 10.4787C11.8818 10.4331 11.9549 10.4061 12.0312 10.4008C12.1075 10.3955 12.1838 10.4123 12.2508 10.449C12.3179 10.4857 12.3731 10.5409 12.4098 10.608L12.4108 10.607ZM9.47276 10.4C10.2428 10.4 10.6758 10.834 10.6758 11.644C10.6758 12.411 10.2958 12.828 9.59976 12.872L9.47276 12.876H8.96776L8.97076 14C8.97088 14.0937 8.93812 14.1845 8.87818 14.2565C8.81823 14.3285 8.73492 14.3771 8.64276 14.394L8.57076 14.4C8.47707 14.4001 8.38631 14.3674 8.31431 14.3074C8.2423 14.2475 8.19362 14.1642 8.17676 14.072L8.17076 14V10.8C8.17063 10.7063 8.2034 10.6156 8.26334 10.5436C8.32329 10.4715 8.4066 10.4229 8.49876 10.406L8.57076 10.4H9.47476H9.47276ZM3.67676 10.4C4.02676 10.4 4.36276 10.479 4.64176 10.613C4.6891 10.6358 4.73149 10.6677 4.76651 10.7068C4.80153 10.746 4.82849 10.7917 4.84585 10.8413C4.86322 10.8909 4.87065 10.9434 4.86771 10.9958C4.86478 11.0483 4.85154 11.0997 4.82876 11.147C4.80597 11.1943 4.77409 11.2367 4.73492 11.2718C4.69575 11.3068 4.65007 11.3337 4.60049 11.3511C4.5509 11.3685 4.49838 11.3759 4.44592 11.373C4.39347 11.37 4.3421 11.3568 4.29476 11.334C4.10114 11.2444 3.89011 11.1986 3.67676 11.2C3.46776 11.2 3.40376 11.257 3.40376 11.386C3.40376 11.537 3.49676 11.658 3.80376 11.873L4.02376 12.021C4.72376 12.476 4.98676 12.747 4.98676 13.303C4.98676 13.953 4.44676 14.4 3.73276 14.4C3.35276 14.4 2.97276 14.293 2.67476 14.116C2.58366 14.0616 2.51788 13.9733 2.49191 13.8704C2.46594 13.7676 2.48189 13.6586 2.53626 13.5675C2.59063 13.4764 2.67896 13.4106 2.78182 13.3847C2.88469 13.3587 2.99366 13.3746 3.08476 13.429C3.25976 13.533 3.49876 13.6 3.73276 13.6C4.03476 13.6 4.18676 13.474 4.18676 13.303C4.18676 13.16 4.09576 13.043 3.79476 12.831L3.57676 12.685C2.87076 12.225 2.60376 11.951 2.60376 11.386C2.60376 10.793 3.04476 10.4 3.67676 10.4ZM7.36076 10.4C7.46111 10.3992 7.55809 10.4362 7.63245 10.5036C7.7068 10.571 7.75311 10.6639 7.76217 10.7639C7.77123 10.8638 7.74239 10.9635 7.68137 11.0432C7.62036 11.1229 7.53162 11.1767 7.43276 11.194L7.36076 11.2H6.12476V11.923H7.06476C7.16511 11.9222 7.26209 11.9592 7.33645 12.0266C7.4108 12.094 7.45711 12.1869 7.46617 12.2869C7.47523 12.3868 7.44639 12.4865 7.38537 12.5662C7.32436 12.6459 7.23562 12.6997 7.13676 12.717L7.06476 12.724H6.12476V13.6H7.43176C7.52545 13.5999 7.61621 13.6326 7.68821 13.6926C7.76022 13.7525 7.8089 13.8358 7.82576 13.928L7.83076 14C7.83088 14.0937 7.79812 14.1845 7.73818 14.2565C7.67823 14.3285 7.59492 14.3771 7.50276 14.394L7.43076 14.4H5.72576C5.63207 14.4001 5.54131 14.3674 5.46931 14.3074C5.3973 14.2475 5.34862 14.1642 5.33176 14.072L5.32576 14V10.8C5.32563 10.7063 5.3584 10.6156 5.41834 10.5436C5.47828 10.4715 5.5616 10.4229 5.65376 10.406L5.72576 10.4H7.36076ZM9.47276 11.2H8.96776V12.076H9.47276C9.80976 12.076 9.87576 12.012 9.87576 11.644C9.87576 11.306 9.81276 11.214 9.54976 11.202L9.47276 11.2ZM11.1908 1.60001C12.0658 1.60001 12.7908 2.32501 12.7908 3.20001V7.18401C12.7908 8.05901 12.0658 8.78401 11.1908 8.78401H4.80076C4.37722 8.78138 3.97178 8.61197 3.67229 8.31248C3.37279 8.01299 3.20338 7.60754 3.20076 7.18401V3.20001C3.20076 2.32501 3.92676 1.60001 4.80076 1.60001H11.1908ZM11.2008 3.20001H4.80076V7.20001H11.2008V3.20001ZM8.80076 5.60001V6.40001H5.60076V5.60001H8.80076Z" fill="#1A1C1F"/>
</g>
<defs>
<clipPath id="clip0_184_91">
<rect width="16" height="16" fill="white"/>
</clipPath>
</defs>
</svg>

<svg xmlns="http://www.w3.org/2000/svg" width="16" height="16" fill="none"><g clip-path="url(#a)"><path fill="#1A1C1F" fill-rule="evenodd" d="m12.41 10.607.029.067 1.062 3.2a.4.4 0 0 1-.73.318l-.03-.066-.28-.846h-.916l-.325.862a.4.4 0 0 1-.447.251l-.07-.019a.4.4 0 0 1-.251-.446l.02-.07 1.213-3.2a.4.4 0 0 1 .725-.05zM9.474 10.4c.77 0 1.203.434 1.203 1.244 0 .767-.38 1.184-1.076 1.228l-.127.004h-.505L8.97 14a.4.4 0 0 1-.328.394l-.072.006a.4.4 0 0 1-.394-.328L8.17 14v-3.2a.4.4 0 0 1 .328-.394l.072-.006h.904zm-5.796 0c.35 0 .686.079.965.213a.401.401 0 0 1-.042.738.4.4 0 0 1-.305-.017 1.45 1.45 0 0 0-.618-.134c-.21 0-.273.057-.273.186 0 .151.093.272.4.487l.22.148c.7.455.963.726.963 1.282 0 .65-.54 1.097-1.254 1.097-.38 0-.76-.107-1.058-.284a.4.4 0 0 1 .41-.687c.175.104.414.171.648.171.302 0 .454-.126.454-.297 0-.143-.091-.26-.392-.472l-.218-.146c-.706-.46-.973-.734-.973-1.299 0-.593.44-.986 1.073-.986m3.684 0a.4.4 0 0 1 .072.794l-.072.006H6.125v.723h.94a.4.4 0 0 1 .072.794l-.072.007h-.94v.876h1.307a.4.4 0 0 1 .394.328L7.83 14a.4.4 0 0 1-.328.394l-.072.006H5.726a.4.4 0 0 1-.394-.328L5.326 14v-3.2a.4.4 0 0 1 .328-.394l.072-.006zm2.112.8h-.505v.876h.505c.337 0 .403-.064.403-.432 0-.338-.063-.43-.326-.442zm1.718-9.6c.875 0 1.6.725 1.6 1.6v3.984c0 .875-.725 1.6-1.6 1.6H4.8a1.61 1.61 0 0 1-1.6-1.6V3.2c0-.875.726-1.6 1.6-1.6zm.01 1.6H4.8v4h6.4zM8.8 5.6v.8H5.6v-.8z" clip-rule="evenodd"/></g><defs><clipPath id="a"><path fill="#fff" d="M0 0h16v16H0z"/></clipPath></defs></svg>
